X: 28569
T: Murphy's
R: hornpipe
M: 4/4
K: Dmajor
fefd gf (3gfe|fefd ec A2|(3faf df gfed|(3cdc A^G A2 AG|
(3FED AD BDAD|dcdf ecAg|fa ~a2 bgec|dfec d2|
fefd gf (3gfe|fefd ec A2|(3faf df gfed|(3cdc A^G A2 (3ABc|
dcdf eceg|fdfa gfge|fa ~a2 bgec|dfec d2||
fa ~a2 bgec|dfec d2||
fgaf gfec|dfec d2||

